build/assets/fonts/e460ab6b6da17bf959f8d123cfeb4e2e.svg

<svg width="100" height="60" viewBox="0 0 100 60" version="1.1" xmlns="http://www.w3.org/2000/svg" xmlns:xlink="http://www.w3.org/1999/xlink"><title>Payoneer-light</title><desc>Created with Sketch.</desc><g id="Light-Payment-badges" stroke="none" stroke-width="1" fill="none" fill-rule="evenodd" transform="translate(-610.000000, -1289.000000)"><g id="Payoneer-light" transform="translate(610.000000, 1289.000000)"><rect id="Rectangle" fill="#FFF" x="0" y="0" width="100" height="60" rx="4"/><path d="M55.7146312,18.0160284 C55.9366385,18.0655129 56.1586457,18.1397397 56.380653,18.1727294 C57.3015719,18.321183 58.0415961,18.8160284 58.6747279,19.4675748 C58.8309553,19.6242758 58.9871826,19.9376778 58.9214027,20.1026263 C58.8474002,20.2840696 58.5513906,20.4572655 58.3293833,20.4902552 C56.2573156,20.7954098 54.2428053,21.3397397 52.31052,22.1397397 C51.1922612,22.6015954 50.0986699,23.1624201 49.0297461,23.7314923 C46.7027811,24.9851005 44.8116082,26.7912861 42.9615478,28.6469562 C41.0045949,30.6098428 39.1792019,32.6881933 37.5840387,34.9562346 C36.5891173,36.3665438 35.6599758,37.8263376 34.7719468,39.3108737 C34.3279323,40.0531418 34.0401451,40.8861315 33.6783555,41.677884 C33.6207981,41.793348 33.4974607,41.9995335 33.4563482,41.9830387 C33.3001209,41.9335541 33.0698912,41.8428325 33.0287787,41.7191211 C32.9301088,41.4139665 32.8314389,41.0593273 32.8889964,40.7541727 C33.201451,39.0964407 33.8921403,37.5706675 34.6568319,36.077884 C36.1451028,33.1912861 38.0116082,30.5603583 40.1905683,28.1686057 C41.4321644,26.8077809 42.714873,25.4799459 44.0386941,24.2098428 C46.0285369,22.2881933 48.2486094,20.663451 50.7235792,19.4098428 C51.8665054,18.8325232 53.0505441,18.3954098 54.3085852,18.1562346 C54.52237,18.1149974 54.7279323,18.0655129 54.9334946,18.0242758 C55.2048368,18.0160284 55.459734,18.0160284 55.7146312,18.0160284 L55.7146312,18.0160284 Z" id="Shape" fill="#F78223"/><path d="M16.0411125,36.4407706 C16.1562273,35.8222139 16.2466747,35.2531418 16.3617896,34.6840696 C16.9538089,31.5582964 17.5540508,28.4407706 18.1460701,25.3149974 C18.1871826,25.1170593 18.24474,24.9851005 18.4420798,24.9521108 C19.9796856,24.721183 21.5255139,24.5562346 23.0631197,24.9438634 C24.4033857,25.2737603 25.3407497,26.2222139 25.496977,27.335616 C25.8176542,29.5541727 24.5267231,31.3273686 22.6108827,31.9624201 C21.5995163,32.292317 20.571705,32.3747913 19.5274486,32.2758222 C19.2807739,32.2510799 19.2067715,32.3170593 19.165659,32.5562346 C18.9436518,33.7686057 18.713422,34.9727294 18.4749698,36.1768531 C18.4585248,36.2758222 18.3680774,36.4325232 18.31052,36.4325232 C17.5622733,36.4490181 16.8304716,36.4407706 16.0411125,36.4407706 L16.0411125,36.4407706 Z M19.5767836,30.3129356 C20.0783555,30.3129356 20.5305925,30.3541727 20.9663845,30.3046882 C21.8215236,30.2139665 22.5039903,29.8263376 22.8904474,29.0098428 C23.3262394,28.0861315 23.0137848,27.1046882 22.1915357,26.8160284 C21.6077388,26.6098428 21.007497,26.6510799 20.4072551,26.7335541 C20.3332527,26.7418016 20.2345828,26.8572655 20.2181378,26.9314923 C20.0125756,28.0119047 19.8070133,29.1005644 19.5767836,30.3129356 L19.5767836,30.3129356 Z" id="Shape" fill="#616161"/><path d="M30.6195889,34.8572655 C30.2084643,35.2861315 29.8795647,35.7232449 29.4602177,36.0448943 C28.5968561,36.7129356 27.6101572,36.8613892 26.6152358,36.3995335 C25.6285369,35.9459253 25.2256348,35.063451 25.1845224,34.0242758 C25.094075,31.8387088 25.8587666,30.0325232 27.6923821,28.778915 C28.8435308,27.9871624 30.1673519,27.7479871 31.5405079,27.8222139 C32.2394196,27.863451 32.9301088,28.0283995 33.6290206,28.1273686 C33.9085852,28.1686057 33.9496977,28.3253067 33.9003628,28.564482 C33.5879081,30.1974717 33.2590085,31.8222139 32.9958888,33.4552036 C32.8561064,34.321183 32.814994,35.2119047 32.7574365,36.0861315 C32.7409915,36.350049 32.6752116,36.4572655 32.4038694,36.4490181 C31.894075,36.4325232 31.3842805,36.4325232 30.8744861,36.4490181 C30.6113664,36.4572655 30.520919,36.3582964 30.5455865,36.1026263 C30.5784764,35.70675 30.5949214,35.2943789 30.6195889,34.8572655 L30.6195889,34.8572655 Z M31.1951632,29.7603583 C30.3975816,29.5376778 29.7315599,29.6943789 29.1724305,30.164482 C28.1199516,31.0552036 27.6430472,32.2098428 27.7334946,33.5871624 C27.758162,34.0077809 27.9226119,34.4119047 28.3666264,34.593348 C28.8106409,34.7747913 29.2135429,34.6428325 29.5588875,34.3459253 C29.7644498,34.164482 29.9617896,33.9582964 30.1097944,33.7273686 C30.8909311,32.5314923 30.9073761,31.1294304 31.1951632,29.7603583 L31.1951632,29.7603583 Z" id="Shape" fill="#616161"/><path d="M46.7192261,36.6387088 C44.540266,36.6387088 43.2986699,35.8304614 42.8464329,34.378915 C42.0981862,31.9871624 43.5371221,28.2510799 47.0563482,27.8552036 C48.1088271,27.7397397 49.095526,27.8716985 49.9588875,28.5149974 C50.7811366,29.1253067 51.1840387,29.9830387 51.2415961,30.9974717 C51.3073761,32.0531418 51.1264813,33.0593273 50.6331318,33.9995335 C49.7039903,35.7479871 48.2157195,36.5974717 46.7192261,36.6387088 L46.7192261,36.6387088 Z M45.1898428,33.0428325 C45.1898428,33.1665438 45.1816203,33.2985026 45.1898428,33.4222139 C45.2556227,34.2881933 45.8723096,34.8407706 46.6863362,34.7665438 C47.1385732,34.7253067 47.4921403,34.4861315 47.771705,34.1397397 C48.5035067,33.2077809 48.7830713,32.135616 48.6844015,30.9727294 C48.6021765,30.0242758 47.8868198,29.521183 47.0152358,29.7191211 C46.5876663,29.8180902 46.2669891,30.0820077 46.0120919,30.4283995 C45.44474,31.2119047 45.2145103,32.0943789 45.1898428,33.0428325 L45.1898428,33.0428325 Z" id="Shape" fill="#616161"/><path d="M53.198549,28.0283995 L55.2870617,28.0283995 C55.2541717,28.4737603 55.2212817,28.9026263 55.1801693,29.3397397 C55.4186215,29.1170593 55.6324063,28.9026263 55.8544135,28.7129356 C56.6684401,28.0036572 57.5975816,27.6902552 58.6747279,27.863451 C59.562757,28.0119047 60.1794438,28.663451 60.2781137,29.578915 C60.3932285,30.6015954 60.1794438,31.5912861 59.9903265,32.5809768 C59.7600967,33.7768531 59.5380895,34.9727294 59.2996372,36.1603583 C59.2749698,36.2675748 59.1516324,36.4242758 59.0694075,36.4325232 C58.3622733,36.4490181 57.6551391,36.4407706 56.9480048,36.4325232 C56.9151149,36.4325232 56.8822249,36.4077809 56.816445,36.3747913 C56.9480048,35.6902552 57.0795647,34.9974717 57.2029021,34.3046882 C57.3920193,33.2407706 57.5729141,32.1851005 57.737364,31.121183 C57.7702539,30.9397397 57.7538089,30.750049 57.7291415,30.5686057 C57.6633615,29.9335541 57.1946796,29.6448943 56.5862152,29.8345851 C55.9941959,30.0242758 55.6406288,30.4861315 55.3528416,30.9974717 C54.9252721,31.7479871 54.7772672,32.5809768 54.6292624,33.4139665 C54.4648126,34.3294304 54.3085852,35.2366469 54.1276904,36.1521108 C54.103023,36.2593273 53.9796856,36.4242758 53.8974607,36.4325232 C53.1738815,36.4572655 52.4420798,36.4490181 51.6362757,36.4490181 C52.1789601,33.6119047 52.6887545,30.8325232 53.198549,28.0283995 L53.198549,28.0283995 Z" id="Shape" fill="#616161"/><path d="M63.6575574,33.1418016 C63.6,33.9995335 64.1837969,34.6098428 65.0553809,34.7170593 C65.9022975,34.8160284 66.7163241,34.6840696 67.5056832,34.378915 C67.5879081,34.3459253 67.6783555,34.3129356 67.7688029,34.2799459 C67.7852479,34.2716985 67.8099154,34.2799459 67.8756953,34.2799459 C67.9250302,34.7830387 67.9825877,35.2861315 68.0072551,35.7892242 C68.0154776,35.8881933 67.9003628,36.0448943 67.8016929,36.0861315 C66.4285369,36.6469562 65.0060459,36.8448943 63.5588875,36.4737603 C62.210399,36.1273686 61.4703748,35.1541727 61.32237,33.793348 C61.1085852,31.8716985 61.6677146,30.1892242 63.1559855,28.9191211 C64.3811366,27.8716985 65.8200726,27.5418016 67.3823458,28.0119047 C68.4266022,28.3253067 69.010399,29.1088119 69.0844015,30.1892242 C69.1584039,31.2531418 68.6979444,32.0696366 67.7112455,32.564482 C66.9383313,32.9521108 66.1078597,33.092317 65.2609432,33.1418016 C64.7347037,33.1665438 64.2002418,33.1418016 63.6575574,33.1418016 L63.6575574,33.1418016 Z M63.8960097,31.3521108 C64.5291415,31.4840696 65.828295,31.3273686 66.329867,31.063451 C66.6752116,30.8820077 66.8478839,30.593348 66.7903265,30.2469562 C66.732769,29.892317 66.4943168,29.7191211 66.1654172,29.6366469 C65.1869407,29.3974717 64.0275695,30.2552036 63.8960097,31.3521108 L63.8960097,31.3521108 Z" id="Shape" fill="#616161"/><path d="M71.8718259,33.1747913 C71.7978235,33.9830387 72.3733978,34.6015954 73.2532044,34.7170593 C74.0754534,34.8160284 74.8648126,34.692317 75.6377267,34.4119047 C75.7692866,34.3624201 75.8926239,34.3129356 76.0652963,34.2469562 C76.1146312,34.7830387 76.1804111,35.2861315 76.2050786,35.7892242 C76.2133011,35.8881933 76.0981862,36.0448943 76.0077388,36.0861315 C74.6099154,36.663451 73.1709794,36.8613892 71.6991536,36.4572655 C70.3753325,36.0943789 69.6846433,35.1294304 69.5201935,33.8098428 C69.3146312,32.1191211 69.7504232,30.593348 70.9262394,29.3397397 C72.192503,27.9954098 73.7465538,27.5170593 75.5390568,28.0119047 C76.6326481,28.3170593 77.216445,29.1088119 77.2822249,30.2222139 C77.3480048,31.3108737 76.8546554,32.1273686 75.826844,32.6057191 C74.7908102,33.0840696 73.6889964,33.1582964 72.5707376,33.1830387 C72.3487304,33.1747913 72.1185006,33.1747913 71.8718259,33.1747913 L71.8718259,33.1747913 Z M72.1102781,31.4180902 C72.6365175,31.3851005 73.129867,31.3768531 73.614994,31.3108737 C73.9438936,31.2696366 74.2727932,31.1706675 74.5688029,31.0304614 C74.88948,30.8902552 75.0457074,30.593348 74.9963724,30.2304614 C74.9470375,29.8840696 74.7168077,29.7191211 74.3961306,29.6366469 C73.4258767,29.3727294 72.2171705,30.263451 72.1102781,31.4180902 L72.1102781,31.4180902 Z" id="Shape" fill="#616161"/><path d="M77.4220073,36.4407706 C77.5288996,35.8304614 77.6275695,35.277884 77.7344619,34.7170593 C78.1620314,32.5809768 78.5978235,30.4448943 78.7787183,28.2593273 C78.7869407,28.1686057 78.9102781,28.0201521 78.976058,28.0119047 C79.6009674,27.9954098 80.2258767,28.0036572 80.9001209,28.0036572 C80.850786,28.5892242 80.8096735,29.1418016 80.7685611,29.6861315 C81.5250302,28.5727294 82.3966143,27.6655129 83.9588875,27.8304614 C83.8026602,28.6139665 83.6711004,29.3397397 83.514873,30.0572655 C83.4984281,30.1149974 83.3915357,30.1892242 83.3257557,30.1974717 C81.705925,30.4119047 81.0234583,30.9892242 80.6205562,32.6552036 C80.3409915,33.8098428 80.1518742,34.9974717 79.913422,36.1686057 C79.896977,36.2675748 79.8065296,36.4242758 79.7489722,36.4242758 C78.992503,36.4490181 78.2360339,36.4407706 77.4220073,36.4407706 L77.4220073,36.4407706 Z" id="Shape" fill="#616161"/><path d="M37.756711,25.9912861 C37.7320435,27.1459253 37.5347037,28.2593273 37.1400242,29.3314923 C37.0989117,29.4469562 37.0166868,29.5459253 36.9344619,29.6448943 C36.7535671,29.8840696 36.5562273,29.9088119 36.416445,29.6448943 C36.2355502,29.2985026 36.0875453,28.9273686 35.9970979,28.5562346 C35.7339782,27.393348 35.4873035,26.2222139 35.2652963,25.0428325 C34.9775091,23.5418016 34.7226119,22.0325232 34.4594921,20.5314923 C34.4183797,20.3170593 34.4019347,20.0943789 34.3854897,19.8799459 C34.3690447,19.6325232 34.5088271,19.5088119 34.7226119,19.5912861 C34.9363966,19.6655129 35.1501814,19.7892242 35.3064087,19.9459253 C36.6137848,21.3397397 37.4360339,22.964482 37.6580411,24.877884 C37.7073761,25.2490181 37.723821,25.6201521 37.756711,25.9912861 L37.756711,25.9912861 Z" id="Shape" fill="#F78223"/></g></g></svg>

<svg width="100" height="60" xmlns="http://www.w3.org/2000/svg"><g fill="none" fill-rule="evenodd"><rect fill="#FFF" width="100" height="60" rx="4"/><path d="M55.715 18.016c.222.05.444.124.666.157.92.148 1.66.643 2.294 1.295.156.156.312.47.246.635-.074.181-.37.354-.592.387-2.072.305-4.086.85-6.018 1.65-1.119.462-2.212 1.022-3.281 1.591-2.327 1.254-4.218 3.06-6.068 4.916-1.957 1.963-3.783 4.041-5.378 6.31a68.89 68.89 0 0 0-2.812 4.354c-.444.742-.732 1.575-1.094 2.367-.057.115-.18.322-.222.305-.156-.05-.386-.14-.427-.264-.099-.305-.198-.66-.14-.965.312-1.658 1.003-3.183 1.768-4.676 1.488-2.887 3.355-5.518 5.534-7.91a83.169 83.169 0 0 1 3.848-3.958c1.99-1.922 4.21-3.547 6.685-4.8 1.143-.577 2.327-1.015 3.585-1.254.213-.041.419-.09.624-.132.272-.008.527-.008.782-.008z" fill="#F78223"/><path d="M16.041 36.44c.115-.618.206-1.187.32-1.756.593-3.126 1.193-6.243 1.785-9.369.041-.198.099-.33.296-.363 1.538-.23 3.084-.396 4.621-.008 1.34.33 2.278 1.278 2.434 2.392.32 2.218-.97 3.991-2.886 4.626-1.011.33-2.04.413-3.084.314-.246-.025-.32.041-.361.28a255.87 255.87 0 0 1-.691 3.62c-.016.1-.107.257-.164.257-.749.016-1.48.008-2.27.008zm3.536-6.127c.501 0 .954.041 1.39-.008.855-.091 1.537-.479 1.923-1.295.436-.924.124-1.905-.698-2.194-.584-.206-1.185-.165-1.785-.082-.074.008-.172.123-.189.197l-.641 3.382zm11.043 4.544c-.412.43-.74.866-1.16 1.188-.863.668-1.85.816-2.845.355-.986-.454-1.39-1.337-1.43-2.376-.09-2.185.674-3.991 2.507-5.245 1.152-.792 2.475-1.031 3.849-.957.698.041 1.39.206 2.088.305.28.042.32.198.271.437-.312 1.633-.641 3.258-.904 4.891-.14.866-.181 1.757-.239 2.631-.016.264-.082.371-.353.363a23.64 23.64 0 0 0-1.53 0c-.263.008-.353-.09-.328-.346.032-.396.049-.809.074-1.246zm.575-5.097c-.797-.222-1.463-.066-2.023.404-1.052.891-1.529 2.046-1.439 3.423.025.42.19.825.634 1.006.444.182.847.05 1.192-.247.205-.182.403-.388.55-.619.782-1.196.798-2.598 1.086-3.967zm15.525 6.879c-2.18 0-3.421-.809-3.874-2.26-.748-2.392.691-6.128 4.21-6.524 1.053-.115 2.04.017 2.903.66.822.61 1.225 1.468 1.283 2.482.065 1.056-.116 2.062-.609 3.003-.929 1.748-2.417 2.597-3.914 2.639zm-1.53-3.596c0 .124-.008.256 0 .38.066.865.682 1.418 1.496 1.344.453-.042.806-.28 1.086-.627.732-.932 1.011-2.004.912-3.167-.082-.949-.797-1.452-1.669-1.254-.427.1-.748.363-1.003.71-.567.783-.797 1.665-.822 2.614zm8.009-5.015h2.088c-.033.446-.066.875-.107 1.312.239-.223.452-.437.674-.627.814-.71 1.744-1.023 2.82-.85.889.149 1.505.8 1.604 1.716.115 1.023-.099 2.012-.288 3.002-.23 1.196-.452 2.392-.69 3.58-.025.107-.148.263-.23.272-.708.016-1.415.008-2.122 0-.033 0-.066-.025-.132-.058a142.787 142.787 0 0 0 .92-5.254 1.78 1.78 0 0 0-.007-.552c-.066-.635-.534-.924-1.143-.734-.592.19-.945.651-1.233 1.162-.428.751-.576 1.584-.724 2.417-.164.915-.32 1.823-.501 2.738-.025.107-.148.272-.23.28-.724.025-1.456.017-2.262.017a928.908 928.908 0 0 0 1.563-8.42zm10.459 5.114c-.058.858.526 1.468 1.397 1.575.847.099 1.661-.033 2.45-.338.083-.033.173-.066.264-.1.016-.007.04 0 .107 0 .049.504.107 1.007.131 1.51.008.1-.107.256-.205.297-1.373.561-2.796.759-4.243.388-1.349-.347-2.089-1.32-2.237-2.68-.213-1.922.346-3.605 1.834-4.875 1.225-1.047 2.664-1.377 4.226-.907 1.045.313 1.628 1.097 1.702 2.177.074 1.064-.386 1.88-1.373 2.375-.773.388-1.603.528-2.45.578-.526.025-1.06 0-1.603 0zm.238-1.79c.633.132 1.932-.025 2.434-.289.345-.181.518-.47.46-.816-.057-.355-.296-.528-.625-.61-.978-.24-2.137.618-2.269 1.715zm7.976 1.823c-.074.808.501 1.427 1.381 1.542.822.099 1.612-.025 2.385-.305.131-.05.255-.1.427-.165.05.536.115 1.04.14 1.542.008.1-.107.256-.197.297-1.398.577-2.837.775-4.309.371-1.324-.363-2.014-1.328-2.179-2.647-.205-1.69.23-3.217 1.406-4.47 1.267-1.345 2.82-1.823 4.613-1.328 1.094.305 1.677 1.097 1.743 2.21.066 1.089-.427 1.905-1.455 2.384-1.036.478-2.138.552-3.256.577-.222-.008-.452-.008-.7-.008zm.238-1.757c.527-.033 1.02-.041 1.505-.107a3.18 3.18 0 0 0 .954-.28c.32-.14.477-.438.427-.8-.049-.347-.28-.512-.6-.594-.97-.264-2.179.626-2.286 1.781zm5.312 5.022c.107-.61.206-1.162.312-1.723.428-2.136.864-4.272 1.045-6.458.008-.09.131-.239.197-.247.625-.017 1.25-.008 1.924-.008-.05.585-.09 1.138-.131 1.682.756-1.113 1.628-2.02 3.19-1.856-.156.784-.288 1.51-.444 2.227-.017.058-.123.132-.19.14-1.62.215-2.302.792-2.704 2.458-.28 1.155-.47 2.342-.708 3.514-.016.099-.106.255-.164.255-.756.025-1.513.017-2.327.017z" fill="#616161"/><path d="M37.757 25.991a10.222 10.222 0 0 1-.617 3.34 1.086 1.086 0 0 1-.206.314c-.18.24-.378.264-.518 0a4.88 4.88 0 0 1-.419-1.089 98.448 98.448 0 0 1-.732-3.513c-.287-1.501-.542-3.01-.806-4.512-.04-.214-.057-.437-.074-.651-.016-.247.124-.371.338-.289.213.075.427.198.583.355 1.308 1.394 2.13 3.018 2.352 4.932.05.371.066.742.099 1.113z" fill="#F78223"/></g></svg>
